src/images/partners/merkl.svg

<svg xmlns="http://www.w3.org/2000/svg" fill="none" viewBox="0 0 26 17"><path fill="#fff" d="M10.1265.0966797h5.74601v2.87301H10.1265zM3.23145 5.19629h5.74601V8.0693H3.23145z"/><path fill="#B9AAFD" d="M17.0225 5.19629h5.74601V8.0693H17.0225z"/><path fill="#fff" d="M-.0004883 9.93701h5.53054v3.23213h-5.53054z"/><path fill="#B9AAFD" d="M6.9668 9.93701h5.17141v3.23213H6.9668z"/><path fill="#fff" d="M13.9331 9.93701h5.09959v3.23213H13.9331zm6.5361 0h5.53054v3.23213H20.4692zM-.0004883 15.0361h5.53054v1.86745h-5.53054zm6.9672883 0h5.17141v1.86745H6.9668zm6.9663 0h5.09959v1.86745H13.9331z"/><path fill="#B9AAFD" d="M20.4692 15.0361h5.53054v1.86745H20.4692z"/></svg>

<svg xmlns="http://www.w3.org/2000/svg" fill="none" viewBox="0 0 26 17"><path fill="#fff" d="M10.127.097h5.746V2.97h-5.746zm-6.896 5.1h5.746v2.872H3.231z"/><path fill="#B9AAFD" d="M17.023 5.196h5.746V8.07h-5.746z"/><path fill="#fff" d="M0 9.937h5.53v3.232H0z"/><path fill="#B9AAFD" d="M6.967 9.937h5.171v3.232H6.967z"/><path fill="#fff" d="M13.933 9.937h5.1v3.232h-5.1zm6.536 0H26v3.232h-5.53zM0 15.037H5.53v1.867H0zm6.968 0h5.171v1.867H6.967zm6.966 0h5.1v1.867h-5.1z"/><path fill="#B9AAFD" d="M20.47 15.036H26v1.868h-5.53z"/></svg>
